X:2220
T:Giga di Roccagrimalda
O:england
C:La Ciapa Rusa: ten ..
M:6/8
L:1/8
K:G
D|G2F G2A|B2B BAB|d2d ded|B3-B2D|\
G2F G2A|B2B BAB|d2d ded|B3 zBc||
|:B2A ABc|B2A ABc|BAB dcB|Add dBc|\
B2A ABc|B2A ABA|GFE DEF|1G3 zBc:|2 G6:|


